X: 242
T: A L'envers
R: slip jig
M: 9/8
K: Edorian
E>F G>B A2|G>A B>G E>D|E>F G>B A2|1 G>A B>G E2:|2 G>A B>G E>B||
c2A>c B>A|G>F E>F G>B|c2A>c B>A|1 G>F G>B A>B:|2 G>F G>B A2||
AA .e2 .A2 B2-|B>G A>B c>d c2|A2 AA .e2 .A2|B>G A>B c>d cB:|

